Newaita-dark/actions/24/zoom.svg

<svg height="24" viewBox="0 0 24 24" width="24" xmlns="http://www.w3.org/2000/svg"><g fill="#e0e0e0"><path d="m16.472656 15.277344c-.398437.53125-.871094 1.003906-1.40625 1.402344l4.222656 4.21875c.195313.195312.507813.195312.703126 0l.699218-.699219c.195313-.195313.195313-.507813 0-.703125zm0 0"/><path d="m10.914062 3.164062c-4.398437 0-7.9375 3.539063-7.9375 7.9375 0 4.398438 3.539063 7.9375 7.9375 7.9375 4.398438 0 7.9375-3.539062 7.9375-7.9375 0-4.398437-3.539062-7.9375-7.9375-7.9375zm0 1.984376c3.300782 0 5.953126 2.65625 5.953126 5.953124 0 3.300782-2.652344 5.953126-5.953126 5.953126-3.296874 0-5.953124-2.652344-5.953124-5.953126 0-3.296874 2.65625-5.953124 5.953124-5.953124zm0 0"/></g></svg>

<svg xmlns="http://www.w3.org/2000/svg" xmlns:xlink="http://www.w3.org/1999/xlink" width="24px" height="24px" viewBox="0 0 24 24" version="1.1">
<g id="surface1">
     <defs>
  <style id="current-color-scheme" type="text/css">
   .ColorScheme-Text { color:#eeeeee; } .ColorScheme-Highlight { color:#424242; }
  </style>
 </defs>
<path style="fill:currentColor" class="ColorScheme-Text" d="M 16.472656 15.277344 C 16.074219 15.808594 15.601562 16.28125 15.066406 16.679688 L 19.289062 20.898438 C 19.484375 21.09375 19.796875 21.09375 19.992188 20.898438 L 20.691406 20.199219 C 20.886719 20.003906 20.886719 19.691406 20.691406 19.496094 Z M 16.472656 15.277344 "/>
     <defs>
  <style id="current-color-scheme" type="text/css">
   .ColorScheme-Text { color:#eeeeee; } .ColorScheme-Highlight { color:#424242; }
  </style>
 </defs>
<path style="fill:currentColor" class="ColorScheme-Text" d="M 10.914062 3.164062 C 6.515625 3.164062 2.976562 6.703125 2.976562 11.101562 C 2.976562 15.5 6.515625 19.039062 10.914062 19.039062 C 15.3125 19.039062 18.851562 15.5 18.851562 11.101562 C 18.851562 6.703125 15.3125 3.164062 10.914062 3.164062 Z M 10.914062 5.148438 C 14.214844 5.148438 16.867188 7.804688 16.867188 11.101562 C 16.867188 14.402344 14.214844 17.054688 10.914062 17.054688 C 7.617188 17.054688 4.960938 14.402344 4.960938 11.101562 C 4.960938 7.804688 7.617188 5.148438 10.914062 5.148438 Z M 10.914062 5.148438 "/>
</g>
</svg>
